Obsidian/status/16s/screencloud-uploading.svg

<svg height="16" width="16" xmlns="http://www.w3.org/2000/svg"><path d="m6 2c-2.209139 0-4 1.790861-4 4 .001836.7165215.1961045 1.419396.5625 2.0351562-1.4708105.2168104-2.56097169 1.4781401-2.5625 2.9648438 0 1.656854 1.3431458 3 3 3h10c1.656854 0 3-1.343146 3-3-.001351-.93638-.439846-1.8184266-1.185547-2.3847656.121877-.3592332.184544-.7358908.185547-1.1152344 0-1.9329966-1.567003-3.5-3.5-3.5-.632495.0014219-1.252784.1742118-1.7949219.5-.6108161-1.5099792-2.0762343-2.4987696-3.7050781-2.5zm-1 1c.5522847 0 1 .4477153 1 1s-.4477153 1-1 1-1-.4477153-1-1 .4477153-1 1-1zm2.96875 2h.0019531l3.0292969 5h-2v3h-2v-3h-2z" fill="#d3dae3"/></svg>

<svg xmlns="http://www.w3.org/2000/svg" width="16" height="16" version="1.1">
 <defs>
  <style id="current-color-scheme" type="text/css">
   .ColorScheme-Text { color:#d3dae3; } .ColorScheme-Highlight { color:#5294e2; }
  </style>
 </defs>
 <path style="fill:currentColor" class="ColorScheme-Text" d="M 6 2 C 3.790861 2 2 3.790861 2 6 C 2.001836 6.7165215 2.1961045 7.419396 2.5625 8.0351562 C 1.0916895 8.2519666 0.00152831 9.5132963 0 11 C 0 12.656854 1.3431458 14 3 14 L 13 14 C 14.656854 14 16 12.656854 16 11 C 15.998649 10.06362 15.560154 9.1815734 14.814453 8.6152344 C 14.93633 8.2560012 14.998997 7.8793436 15 7.5 C 15 5.5670034 13.432997 4 11.5 4 C 10.867505 4.0014219 10.247216 4.1742118 9.7050781 4.5 C 9.094262 2.9900208 7.6288438 2.0012304 6 2 z M 5 3 C 5.5522847 3 6 3.4477153 6 4 C 6 4.5522847 5.5522847 5 5 5 C 4.4477153 5 4 4.5522847 4 4 C 4 3.4477153 4.4477153 3 5 3 z M 7.96875 5 L 7.9707031 5 L 11 10 L 9 10 L 9 13 L 7 13 L 7 10 L 5 10 L 7.96875 5 z"/>
</svg>
